kora/apps/scalable/org.gnome.FontViewer.svg

<svg xmlns="http://www.w3.org/2000/svg" width="48" height="48" version="1.1">
 <rect style="opacity:0.2" width="40" height="40" x="4" y="5" ry="6"/>
 <rect style="fill:#a448ba" width="40" height="40" x="4" y="4" ry="6"/>
 <path style="opacity:0.2" d="m 18.873047,11 c -0.761097,1.2e-5 -1.544294,0.06903 -2.347656,0.205078 -0.803361,0.129259 -1.632227,0.326509 -2.486329,0.591797 v 1.734375 c 0.710351,-0.312911 1.451157,-0.548608 2.220704,-0.705078 0.769548,-0.156453 1.561212,-0.234365 2.373046,-0.234375 1.276925,10e-6 2.266853,0.238672 2.96875,0.714844 0.710339,0.46939 1.064444,0.636076 1.064454,1.5 V 15 h -3.271485 c -2.122583,8e-6 -3.722902,0.315708 -4.796875,0.96875 -1.065522,0.653058 -1.597667,2.122514 -1.597656,3.408203 -1.1e-5,1.102023 0.42714,1.98468 1.28125,2.644531 C 15.143812,22.674536 16.30328,23 17.757812,23 c 1.150075,0 2.123047,-0.161756 2.917969,-0.488281 0.7949,-0.333329 1.457463,-0.847149 1.990235,-1.541016 V 23 H 25 V 16.185547 C 24.999978,14.444088 24.49329,13.144244 23.478516,12.287109 22.463731,11.429992 20.927969,11.000012 18.873047,11 Z M 27,15 v 16 h 4 v -1.927734 c 0.47163,0.659507 0.924431,1.146596 1.498047,1.46289 C 33.071643,30.844721 33.732818,31 34.478516,31 c 1.319284,0 2.402318,-0.550634 3.25,-1.654297 0.847644,-1.11039 1.271465,-2.637876 1.271484,-4.380859 -1.9e-5,-1.742973 -0.42384,-3.16586 -1.271484,-4.269532 -0.847682,-1.110382 -1.930716,-1.666003 -3.25,-1.666015 -0.745698,1.2e-5 -1.406873,0.158328 -1.980469,0.474609 C 31.924431,19.813482 31.47163,20.297537 31,20.957031 V 15 Z m -6.533203,1 H 23 v 0.560547 c -1.1e-5,1.644264 -0.428974,2.965249 -1.287109,3.960937 -0.848926,0.986555 -1.978855,1.478518 -3.390625,1.478516 -1.024246,2e-6 -1.83577,-0.260567 -2.435547,-0.78125 C 15.296164,20.688937 15,19.977242 15,19.082031 15,17.958461 15.397843,17.165098 16.191406,16.699219 16.984945,16.233353 18.409086,16.000008 20.466797,16 Z m 12.541015,6 c 0.646924,1.1e-5 1.139028,0.255335 1.476563,0.767578 C 34.827523,23.279834 34.999992,24.024292 35,25 c -8e-6,0.975717 -0.172477,1.720176 -0.515625,2.232422 -0.337535,0.512253 -0.829638,0.76758 -1.476563,0.767578 -0.646942,2e-6 -1.14341,-0.255325 -1.492187,-0.767578 C 31.17246,26.714079 30.999991,25.969618 31,25 c -9e-6,-0.969611 0.17246,-1.710398 0.515625,-2.222656 C 31.864402,22.259006 32.36087,22.000011 33.007812,22 Z m -16.240234,4 c -2.113422,1.2e-5 -3.954653,0.638314 -5.521484,1.912109 -1.5577471,1.265495 -2.5686196,2.960975 -3.0332034,5.083985 -0.4554796,2.114693 -0.1817387,3.81162 0.8203125,5.09375 C 10.035254,39.363655 11.593608,40 13.707031,40 c 1.603268,0 2.990865,-0.370355 4.166016,-1.111328 1.175111,-0.740973 2.096702,-1.819028 2.761719,-3.234375 h -2.021485 c -0.464604,1.040697 -1.080511,1.819756 -1.845703,2.335937 -0.756098,0.516186 -1.67769,0.77344 -2.761719,0.773438 -1.366439,2e-6 -2.290645,-0.483454 -2.773437,-1.449219 -0.473698,-0.965761 -0.499099,-2.40348 -0.08008,-4.318359 0.419033,-1.91487 1.078624,-3.3531 1.980468,-4.310547 0.91095,-0.965752 2.045009,-1.449209 3.402344,-1.449219 1.193339,10e-6 2.051054,0.267958 2.570313,0.800781 0.528343,0.532849 0.759062,1.381307 0.695312,2.546875 h 1.460938 L 22,27.1875 C 21.17104,26.787886 20.319814,26.492282 19.445312,26.300781 18.579904,26.100982 17.687632,26.000012 16.767578,26 Z"/>
 <path style="opacity:0.2;fill:#ffffff" d="M 10,4 C 6.676,4 4,6.676 4,10 v 1 C 4,7.676 6.676,5 10,5 h 28 c 3.324,0 6,2.676 6,6 V 10 C 44,6.676 41.324,4 38,4 Z"/>
 <path style="fill:#ffffff" d="M 18.873047 10 C 18.11195 10.000012 17.328753 10.069029 16.525391 10.205078 C 15.72203 10.334337 14.893164 10.531587 14.039062 10.796875 L 14.039062 12.53125 C 14.749413 12.218339 15.490219 11.982642 16.259766 11.826172 C 17.029314 11.669719 17.820978 11.591807 18.632812 11.591797 C 19.909737 11.591807 20.899665 11.830469 21.601562 12.306641 C 22.311901 12.776031 22.666006 12.942717 22.666016 13.806641 L 22.666016 14 L 19.394531 14 C 17.271948 14.000008 15.671629 14.315708 14.597656 14.96875 C 13.532134 15.621808 12.999989 17.091264 13 18.376953 C 12.999989 19.478976 13.42714 20.361633 14.28125 21.021484 C 15.143812 21.674536 16.30328 22 17.757812 22 C 18.907887 22 19.880859 21.838244 20.675781 21.511719 C 21.470681 21.17839 22.133244 20.66457 22.666016 19.970703 L 22.666016 22 L 25 22 L 25 15.185547 C 24.999978 13.444088 24.49329 12.144244 23.478516 11.287109 C 22.463731 10.429992 20.927969 10.000012 18.873047 10 z M 27 14 L 27 30 L 31 30 L 31 28.072266 C 31.47163 28.731773 31.924431 29.218862 32.498047 29.535156 C 33.071643 29.844721 33.732818 30 34.478516 30 C 35.7978 30 36.880834 29.449366 37.728516 28.345703 C 38.57616 27.235313 38.999981 25.707827 39 23.964844 C 38.999981 22.221871 38.57616 20.798984 37.728516 19.695312 C 36.880834 18.58493 35.7978 18.029309 34.478516 18.029297 C 33.732818 18.029309 33.071643 18.187625 32.498047 18.503906 C 31.924431 18.813482 31.47163 19.297537 31 19.957031 L 31 14 L 27 14 z M 20.466797 15 L 23 15 L 23 15.560547 C 22.999989 17.204811 22.571026 18.525796 21.712891 19.521484 C 20.863965 20.508039 19.734036 21.000002 18.322266 21 C 17.29802 21.000002 16.486496 20.739433 15.886719 20.21875 C 15.296164 19.688937 15 18.977242 15 18.082031 C 15 16.958461 15.397843 16.165098 16.191406 15.699219 C 16.984945 15.233353 18.409086 15.000008 20.466797 15 z M 33.007812 21 C 33.654736 21.000011 34.14684 21.255335 34.484375 21.767578 C 34.827523 22.279834 34.999992 23.024292 35 24 C 34.999992 24.975717 34.827523 25.720176 34.484375 26.232422 C 34.14684 26.744675 33.654737 27.000002 33.007812 27 C 32.36087 27.000002 31.864402 26.744675 31.515625 26.232422 C 31.17246 25.714079 30.999991 24.969618 31 24 C 30.999991 23.030389 31.17246 22.289602 31.515625 21.777344 C 31.864402 21.259006 32.36087 21.000011 33.007812 21 z M 16.767578 25 C 14.654156 25.000012 12.812925 25.638314 11.246094 26.912109 C 9.6883469 28.177604 8.6774744 29.873084 8.2128906 31.996094 C 7.757411 34.110787 8.0311519 35.807714 9.0332031 37.089844 C 10.035254 38.363655 11.593608 39 13.707031 39 C 15.310299 39 16.697896 38.629645 17.873047 37.888672 C 19.048158 37.147699 19.969749 36.069644 20.634766 34.654297 L 18.613281 34.654297 C 18.148677 35.694994 17.53277 36.474053 16.767578 36.990234 C 16.01148 37.50642 15.089888 37.763674 14.005859 37.763672 C 12.63942 37.763674 11.715214 37.280218 11.232422 36.314453 C 10.758724 35.348692 10.733323 33.910973 11.152344 31.996094 C 11.571377 30.081224 12.230968 28.642994 13.132812 27.685547 C 14.043762 26.719795 15.177821 26.236338 16.535156 26.236328 C 17.728495 26.236338 18.58621 26.504286 19.105469 27.037109 C 19.633812 27.569958 19.864531 28.418416 19.800781 29.583984 L 21.261719 29.583984 L 22 26.1875 C 21.17104 25.787886 20.319814 25.492282 19.445312 25.300781 C 18.579904 25.100982 17.687632 25.000012 16.767578 25 z"/>
</svg>

<svg clip-rule="evenodd" fill-rule="evenodd" stroke-linejoin="round" stroke-miterlimit="2" viewBox="0 0 48 48" xmlns="http://www.w3.org/2000/svg">
 <linearGradient id="a" x2="1" gradientTransform="matrix(0 -43.2098 43.2098 0 23.459 45.5418)" gradientUnits="userSpaceOnUse">
  <stop stop-color="#77208c" offset="0"/>
  <stop stop-color="#a448ba" offset="1"/>
 </linearGradient>
 <path d="m39.44 2.332c3.196 0 5.832 2.411 6.187 5.513v32.31c-.317 2.769-2.451 4.987-5.178 5.432h-32.898c-2.727-.445-4.861-2.663-5.178-5.432v-32.31c.355-3.102 2.991-5.513 6.187-5.513z" fill="url(#a)"/>
 <path transform="matrix(1.08137 0 0 1.08137 -1.95278 -1.99346)" d="m18.873 10c-.761 0-1.544.069-2.348.205-.803.129-1.632.327-2.486.592v1.734c.71-.313 1.451-.548 2.221-.705.769-.156 1.561-.234 2.373-.234 1.277 0 2.267.238 2.969.715.71.469 1.064.636 1.064 1.5v.193h-3.271c-2.123 0-3.723.316-4.797.969-1.066.653-1.598 2.122-1.598 3.408 0 1.102.427 1.985 1.281 2.644.863.654 2.022.979 3.477.979 1.15 0 2.123-.162 2.918-.488.795-.334 1.457-.847 1.99-1.541v2.029h2.334v-6.814c0-1.742-.507-3.042-1.521-3.899-1.015-.857-2.551-1.287-4.606-1.287zm8.127 4v16h4v-1.928c.472.66.924 1.147 1.498 1.463.574.31 1.235.465 1.981.465 1.319 0 2.402-.551 3.25-1.654.847-1.111 1.271-2.638 1.271-4.381s-.424-3.166-1.271-4.27c-.848-1.11-1.931-1.666-3.25-1.666-.746 0-1.407.159-1.981.475-.574.309-1.026.794-1.498 1.453v-5.957zm-6.533 1h2.533v.561c0 1.644-.429 2.965-1.287 3.96-.849.987-1.979 1.479-3.391 1.479-1.024 0-1.836-.261-2.435-.781-.591-.53-.887-1.242-.887-2.137 0-1.124.398-1.917 1.191-2.383.794-.466 2.218-.699 4.276-.699zm12.541 6c.647 0 1.139.255 1.476.768.344.512.516 1.256.516 2.232s-.172 1.72-.516 2.232c-.337.513-.829.768-1.476.768s-1.144-.255-1.492-.768c-.344-.518-.516-1.262-.516-2.232s.172-1.71.516-2.223c.348-.518.845-.777 1.492-.777zm-16.24 4c-2.114 0-3.955.638-5.522 1.912-1.558 1.266-2.569 2.961-3.033 5.084-.456 2.115-.182 3.812.82 5.094 1.002 1.274 2.561 1.91 4.674 1.91 1.603 0 2.991-.37 4.166-1.111s2.097-1.819 2.762-3.235h-2.022c-.464 1.041-1.08 1.82-1.845 2.336-.757.516-1.678.774-2.762.774-1.367 0-2.291-.484-2.774-1.45-.473-.965-.499-2.403-.08-4.318s1.079-3.353 1.981-4.31c.911-.966 2.045-1.45 3.402-1.45 1.193 0 2.051.268 2.57.801.529.533.76 1.381.696 2.547h1.461l.738-3.396c-.829-.4-1.68-.696-2.555-.887-.865-.2-1.757-.301-2.677-.301z" fill="#fff" fill-opacity=".9" fill-rule="nonzero"/>
</svg>
